section-13/letter.svg

<svg width="16" height="14" viewBox="0 0 16 14" fill="none" xmlns="http://www.w3.org/2000/svg">
<path d="M14.5938 0.90625H1.40625C0.631813 0.90625 0 1.53737 0 2.3125V11.6875C0 12.46 0.629 13.0938 1.40625 13.0938H14.5938C15.3663 13.0938 16 12.4648 16 11.6875V2.3125C16 1.54 15.371 0.90625 14.5938 0.90625ZM14.3996 1.84375L8.02981 8.21353L1.60497 1.84375H14.3996ZM0.9375 11.4934V2.50216L5.45247 6.97841L0.9375 11.4934ZM1.60041 12.1562L6.11822 7.63844L7.70125 9.20788C7.8845 9.38956 8.18022 9.38897 8.36272 9.20644L9.90625 7.66291L14.3996 12.1562H1.60041ZM15.0625 11.4933L10.5692 7L15.0625 2.50662V11.4933Z" fill="white"/>
</svg>

<svg xmlns="http://www.w3.org/2000/svg" width="16" height="14" fill="none"><path fill="#fff" d="M14.594.906H1.406C.632.906 0 1.537 0 2.312v9.376c0 .772.629 1.406 1.406 1.406h13.188c.772 0 1.406-.63 1.406-1.406V2.312c0-.772-.629-1.406-1.406-1.406Zm-.194.938-6.37 6.37-6.425-6.37H14.4ZM.937 11.494V2.501l4.515 4.476-4.514 4.515Zm.663.662 4.518-4.518 1.583 1.57a.469.469 0 0 0 .662-.002l1.543-1.543 4.494 4.493H1.6Zm13.463-.663L10.569 7l4.493-4.493v8.986Z"/></svg>
